!!!COM: Berg, Alban (Maria Johannes)
!!!OTL: [T455_Ber-w15p204m796-802]
**kern	**dynam	**kern	**dynam	**kern	**dynam	**kern	**dynam	**kern	**text	**dynam	**kern	**text	**dynam	**kern	**text	**dynam	**kern	**kern	**dynam	**kern	**dynam	**kern	**dynam	**kern	**dynam	**kern
*part12	*part12	*part11	*part11	*part10	*part10	*part9	*part9	*part8	*part8	*part8	*part7	*part7	*part7	*part6	*part6	*part6	*part5	*part5	*part5	*part4	*part4	*part3	*part3	*part2	*part2	*part1
*staff13	*	*staff12	*	*staff11	*	*staff10	*	*staff9	*staff9	*	*staff8	*staff8	*	*staff7	*staff7	*	*staff6	*staff5	*	*staff4	*	*staff3	*	*staff2	*	*staff1
*I"Violoncello	*	*I"Viola	*	*I"Violin II	*	*I"Violin I	*	*I"Dr. Sch.	*	*	*I"Alwa	*	*	*I"Lulu	*	*	*I"Piano	*	*	*I"Clarinet in Bb	*	*I"English Horn	*	*I"Oboe	*	*I"Flute
*I'Vc.	*	*I'Vla.	*	*I'Vln. II	*	*I'Vln. I	*	*I'B. Solo	*	*	*I'S. Solo	*	*	*I'S. Solo	*	*	*I'Pno.	*	*	*I'Cl.	*	*I'Eng. Hn.	*	*I'Ob.	*	*I'Fl.
!!pagebreak:original
*clefF4	*	*clefC3	*	*clefG2	*	*clefG2	*	*clefF4	*	*	*clefG2	*	*	*clefG2	*	*	*clefF4	*clefG2	*	*clefG2	*	*clefG2	*	*clefG2	*	*clefG2
*	*	*	*	*	*	*	*	*	*	*	*	*	*	*	*	*	*	*	*	*ITrd1c2	*	*ITrd4c7	*	*	*	*
*k[]	*	*k[]	*	*k[]	*	*k[]	*	*k[]	*	*	*k[]	*	*	*k[]	*	*	*k[]	*k[]	*	*k[b-e-]	*	*k[b-]	*	*k[]	*	*k[]
*	*	*	*	*	*	*	*	*	*	*	*	*	*	*	*	*	*	*	*	*	*	*	*	*	*	*
*M2/4	*	*M2/4	*	*M2/4	*	*M2/4	*	*M2/4	*	*	*M2/4	*	*	*M2/4	*	*	*M2/4	*M2/4	*	*M2/4	*	*M2/4	*	*M2/4	*	*M2/4
=1	=1	=1	=1	=1	=1	=1	=1	=1	=1	=1	=1	=1	=1	=1	=1	=1	=1	=1	=1	=1	=1	=1	=1	=1	=1	=1
*	*	*	*	*	*	*	*	*	*	*	*	*	*	*	*	*	*	*	*	*	*	*	*	*	*	*tremolo
!	!	!	!	!	!	!LO:TX:t=[quarter]=192	!	!	!	!	!	!	!	!	!	!	!	!	!	!LO:TX:b:t=[mp]	!	!	!	!	!	!LO:TX:t=[quarter]=192
!LO:TX:b:t=[p]	!	!LO:TX:b:t=[p]	!	!LO:TX:b:t=[p]	!	!LO:TX:b:t=[p]	!	!	!	!	!LO:TX:b:t=[p]	!	!	!LO:TX:a:t=[mf]	!	!	!	!	!	!LO:TX:a:t=(m. Ges.)	!	!	!	!	!	!LO:TX:b:t=[p]
4r'	.	8r	.	8A-X'L	.	4r	.	2r	.	.	6an	to-	.	2r	.	.	8.BB-X'^L	2r	.	(6A~	.	4r	.	4r	.	32ccn 32ffnLLL
.	.	.	.	.	.	.	.	.	.	.	.	.	.	.	.	.	.	.	.	.	.	.	.	.	.	32ccn 32ffn
.	.	.	.	.	.	.	.	.	.	.	.	.	.	.	.	.	.	.	.	.	.	.	.	.	.	32ccn 32ffn
.	.	.	.	.	.	.	.	.	.	.	.	.	.	.	.	.	.	.	.	.	.	.	.	.	.	32ccn 32ffn
.	.	8D-X'	.	8A-'J	.	.	.	.	.	.	.	.	.	.	.	.	.	.	.	.	.	.	.	.	.	32ccn 32ffn
.	.	.	.	.	.	.	.	.	.	.	.	.	.	.	.	.	.	.	.	.	.	.	.	.	.	32ccn 32ffn
.	.	.	.	.	.	.	.	.	.	.	6b-X	-ten-	.	.	.	.	.	.	.	6B-~)	<	.	.	.	.	.
.	.	.	.	.	.	.	.	.	.	.	.	.	.	.	.	.	16BBnJk	.	p	.	.	.	.	.	.	32ccn 32ffn
.	.	.	.	.	.	.	.	.	.	.	.	.	.	.	.	.	.	.	.	.	.	.	.	.	.	32ccn 32ffn
!	!	!	!	!	!	!	!	!	!	!	!	!	!	!	!	!	!	!	!	!	!	!LO:TX:a:B:t=R	!	!LO:TX:a:B:t=R	!	!
8BB-X'	.	4r	.	4r'	.	8gn'L	.	.	.	.	.	.	.	.	.	.	24F#XLL	.	.	.	.	8r	.	8r	.	32ccn 32ffn
.	.	.	.	.	.	.	.	.	.	.	.	.	.	.	.	.	.	.	.	.	.	.	.	.	.	32ccn 32ffn
.	.	.	.	.	.	.	.	.	.	.	.	.	.	.	.	.	24Bn	.	.	.	.	.	.	.	.	.
.	.	.	.	.	.	.	.	.	.	.	.	.	.	.	.	.	.	.	.	.	.	.	.	.	.	32ccn 32ffn
.	.	.	.	.	.	.	.	.	.	.	[6ccn	-bleich...	.	.	.	.	24f#XJ	.	.	[6c~	[	.	.	.	.	.
.	.	.	.	.	.	.	.	.	.	.	.	.	.	.	.	.	.	.	.	.	.	.	.	.	.	32ccn 32ffnJJJ
*	*	*	*	*	*	*	*	*	*	*	*	*	*	*	*	*	*	*	*	*	*	*	*	*	*	*Xtremolo
8r	.	.	.	.	.	8gn'J	.	.	.	.	.	.	.	.	.	.	24bnL	.	.	.	.	[8ff#X^	mf	[8bbn^	mf	8r
*	*	*	*	*	*	*	*	*	*	*	*	*	*	*	*	*	*clefG2	*	*	*	*	*	*	*	*	*
.	.	.	.	.	.	.	.	.	.	.	.	.	.	.	.	.	24ryy	.	.	.	.	.	.	.	.	.
.	.	.	.	.	.	.	.	.	.	.	.	.	.	.	.	.	[24bbnJJ	.	.	.	.	.	.	.	.	.
=2	=2	=2	=2	=2	=2	=2	=2	=2	=2	=2	=2	=2	=2	=2	=2	=2	=2	=2	=2	=2	=2	=2	=2	=2	=2	=2
!	!	!	!	!	!	!	!	!	!	!	!	!	!	!LO:TX:a:i:t=poco	!	!	!	!	!	!	!	!	!	!	!	!
8ryy	.	8ryy	.	8ryy	.	4ryy	.	4.ryy	Wal-	mf	6ryy	.	.	2ryy	.	f	2r	2ryy	.	6ryy	>	8ryy	.	8ryy	.	2ryy
8BB-X'	.	8D-'J	.	8r	.	.	.	.	.	.	.	.	.	.	.	.	.	.	.	.	.	8r	.	8r	.	.
.	.	.	.	.	.	.	.	.	.	.	6r	.	.	.	.	.	.	.	.	6r	.	.	.	.	.	.
4r	.	4r'	.	8r	.	8gn'	.	.	.	.	.	.	.	.	.	.	.	.	.	.	.	8ff#X^	.	8bbn^	.	.
.	.	.	.	.	.	.	.	.	.	.	6r	.	.	.	.	.	.	.	.	6r	]	.	.	.	.	.
.	.	.	.	8A-'	.	8r	.	8Fn	-ter,	.	.	.	.	.	.	.	.	.	.	.	.	8r	.	8r	.	.
=3	=3	=3	=3	=3	=3	=3	=3	=3	=3	=3	=3	=3	=3	=3	=3	=3	=3	=3	=3	=3	=3	=3	=3	=3	=3	=3
8BB-X'L	.	8D-X'	.	4r	.	8r	.	4r	.	.	2r	.	.	3ddn	Gott	.	2r	2r	.	3d	<	8r	.	8r	.	2r
8BB-'J	.	8r	.	.	.	8gn'	.	.	.	.	.	.	.	.	.	.	.	.	.	.	.	8ff#X^L	.	8bbn^L	.	.
4r'	.	8r	.	8A-X'L	.	4r	.	8cnL	Wal-	f	.	.	.	.	.	.	.	.	.	.	.	8ff#^J	.	8bb^J	.	.
.	.	.	.	.	.	.	.	.	.	.	.	.	.	6een	er-	.	.	.	.	[6eX~	.	.	.	.	.	.
.	.	8D-'	.	8A-'J	.	.	.	8B-XJ	-ter!	.	.	.	.	.	.	.	.	.	.	.	.	8r	.	8r	.	.
=4	=4	=4	=4	=4	=4	=4	=4	=4	=4	=4	=4	=4	=4	=4	=4	=4	=4	=4	=4	=4	=4	=4	=4	=4	=4	=4
!	!	!	!	!	!	!	!	!LO:TX:a:t=zu Lulu	!	!	!	!	!	!	!	!	!	!	!	!	!	!	!	!	!	!LO:TX:a:B:t=800
8BB-X'	.	4r	.	4r	.	8gn'	.	2r	.	.	2r	.	.	6r	.	.	2r	2r	.	6e]	.	8r	.	8r	.	2r
!	!	!	!	!	!	!LO:TX:a:B:t=800	!	!	!	!	!	!	!	!	!	!	!	!	!	!	!	!	!	!	!	!
8r	.	.	.	.	.	[4.g~	<	.	.	.	.	.	.	.	.	.	.	.	.	.	.	(4.ff#X^	< [	(4.bbn^	< [	.
.	.	.	.	.	.	.	.	.	.	.	.	.	.	6gg#X	-barm'	.	.	.	.	(6a-X	.	.	.	.	.	.
8r	.	8D-X'L	.	[4A-X~	<	.	.	.	.	.	.	.	.	.	.	.	.	.	.	.	.	.	.	.	.	.
.	.	.	.	.	.	.	.	.	.	.	.	.	.	6ee#X	Dich...	.	.	.	.	6f	[	.	.	.	.	.
[8BB-~	<	[8D-~J	<	.	.	.	.	.	.	.	.	.	.	.	.	.	.	.	.	.	.	.	.	.	.	.
=5	=5	=5	=5	=5	=5	=5	=5	=5	=5	=5	=5	=5	=5	=5	=5	=5	=5	=5	=5	=5	=5	=5	=5	=5	=5	=5
!LO:TX:a:t=am Frosch	!	!LO:TX:a:t=am Frosch	!	!LO:TX:a:t=am Frosch	!	!	!	!	!	!	!	!	!	!	!	!	!	!	!	!LO:TX:a:B:t=R	!	!	!	!	!	!
8BB-L]	.	8D-L]	.	8A-L]	.	8gL]	.	8r	.	.	2r	.	.	2r	.	.	2r	2r	.	8F^)	f	8F#X^)	f	8Bn^)	f	2r
!	!	!	!	!	!	!LO:TX:a:t=am Frosch	!	!	!	!	!	!	!	!	!	!	!	!	!	!	!	!	!	!	!	!
8FFn^uJ	mp [	8Dn^uJ	mp [	8cn^uJ	mp [	8gn^uJ	mf [	8F#XL	Wo	.	.	.	.	.	.	.	.	.	.	8r	.	8r	.	8r	.	.
[4FF^u	.	[4D^u	.	[4c^u	.	[4g^u	.	8Bn	ist	.	.	.	.	.	.	.	.	.	.	8r	.	8r	.	8r	.	.
.	.	.	.	.	.	.	.	8c#XJ	das	.	.	.	.	.	.	.	.	.	.	8F-X^L	.	8F#^L	.	8B^L	.	.
=6	=6	=6	=6	=6	=6	=6	=6	=6	=6	=6	=6	=6	=6	=6	=6	=6	=6	=6	=6	=6	=6	=6	=6	=6	=6	=6
8r	.	8r	.	8r	.	8r	.	[4c#X	Beil?	.	2r	.	.	8r	.	.	2r	2r	.	8E-^J	.	8F#X^J	.	8Bn^J	.	2r
4FFn^u]	.	4Dn^u]	.	4cn^u]	.	4gn^u]	.	.	.	.	.	.	.	8bnL	Wenn	mf	.	.	.	8r	.	8r	.	8r	.	.
.	.	.	.	.	.	.	.	4r	.	.	.	.	.	8f#X	ei-	.	.	.	.	8r	.	8r	.	8r	.	.
8r	.	8r	.	8r	.	8r	.	.	.	.	.	.	.	8bJ	-nes	.	.	.	.	[8E-^	.	[8F#^	.	[8B^	.	.
=7	=7	=7	=7	=7	=7	=7	=7	=7	=7	=7	=7	=7	=7	=7	=7	=7	=7	=7	=7	=7	=7	=7	=7	=7	=7	=7
4FFn^u	.	4Dn^u	.	4cn^u	.	4gn^u	.	2r	.	.	4r	.	.	4cc#X	da	.	2r	2r	.	8E-]	.	8F#]	.	8B]	.	2r
.	.	.	.	.	.	.	.	.	.	.	.	.	.	.	.	.	.	.	.	8r^	.	8r^	.	8r^	.	.
8r	.	8r	.	8r	.	8r	.	.	.	.	8r	.	.	[4dd#X	ist...	.	.	.	.	8E-^	.	8F#X^	.	8Bn^	.	.
8FF^	.	8D^	.	8c^	.	8g^	.	.	.	.	8fn	Er	mf	.	.	.	.	.	.	8r	.	8r	.	8r	.	.
=	=	=	=	=	=	=	=	=	=	=	=	=	=	=	=	=	=	=	=	=	=	=	=	=	=	=
*-	*-	*-	*-	*-	*-	*-	*-	*-	*-	*-	*-	*-	*-	*-	*-	*-	*-	*-	*-	*-	*-	*-	*-	*-	*-	*-
!!!system-decoration: [(s1,s2,s3,s4)][({(s5,s6)})][(s7,s8,s9)][(s10,s11,s12,s13)]
